!!!COM: Bach, Johann Sebastian
!!!OTA: Das wohltemperirte Clavier
!!!OPR: Das wohltemperierte Klavier
!!!OTL: Fuga 24, Vol. 2
!!!XEN: The Well-Tempered Clavier, Volume 2, Fugue 24.
!!!ONB: B minor, 3-part
!!!SCT: BWV 893b
!!!YEC: Copyright 1994, David Huron
!!!YEM: Rights to all derivative electronic formats reserved.
**kern	**kern	**kern
*staff2	*staff1	*staff1
*clefF4	*clefG2	*clefG2
*k[f#c#]	*k[f#c#]	*k[f#c#]
*M3/8	*M3/8	*M3/8
*b:	*b:	*b:
*MM72	*MM72	*MM72
8r	8f#	8r
=1	=1	=1
4.r	8d	4.r
.	8B	.
.	8A#	.
=2	=2	=2
4.r	8B	4.r
.	16c#	.
.	16d	.
.	16e	.
.	16f#	.
=3	=3	=3
4.r	8g	4.r
.	8G	.
.	8g	.
=4	=4	=4
4.r	8f#	4.r
.	8F#	.
.	8f#	.
=5	=5	=5
4.r	8e	4.r
.	16f#	.
.	16e	.
.	16d	.
.	16c#	.
=6	=6	=6
4.r	16d	8r
.	16f#	.
.	16e	8r
.	16d	.
.	16c#	8b
.	16B	.
=7	=7	=7
4.r	16c#	8a
.	16B	.
.	16c#	8f#
.	16d	.
.	16c#	8e#
.	16B	.
=8	=8	=8
4.r	8A	8f#
.	8F#	16g#
.	.	16a
.	8E#	16b
.	.	16cc#
=9	=9	=9
4.r	16F#	8dd
.	16G#	.
.	8.G#T	8d
.	.	8dd
.	32F#	.
.	32G#	.
=10	=10	=10
4.r	16A	8cc#
.	16B	.
.	16A	8c#
.	16G#	.
.	16F#	8cc#
.	16E	.
=11	=11	=11
4.r	16D#	8b
.	16E#	.
.	8.E#T	16cc#
.	.	16b
.	.	16a
.	32D#	16g#
.	32E#	.
=12	=12	=12
4.r	8F#	16a
.	.	16cc#
.	8G#	16b
.	.	16a
.	8A	16g#
.	.	16f#
=13	=13	=13
4.r	16B	8gn
.	16c#	.
.	8.c#T	16a
.	.	16g
.	.	16f#
.	32B	16e
.	32c#	.
=14	=14	=14
4.r	8d	16f#
.	.	16a
.	8A#	16g
.	.	16f#
.	[8B	16e
.	.	16d
=15	=15	=15
8r	8B]	8e
8r	16A#	16f#
.	16G#	16e
8F#	8A#	16d
.	.	16c#
=16	=16	=16
8D	16B	8d
.	16c#	.
8BB	16d	[4f#
.	16e	.
8AA#	16f#	.
.	16e	.
=17	=17	=17
8BB	8d	4.f#_
16C#	8B	.
16D	.	.
16E	8A#	.
16F#	.	.
=18	=18	=18
8G#	16B	8f#]
.	16c#	.
8GG#	8.c#T	8e
8G#	.	8a
.	32B	.
.	32c#	.
=19	=19	=19
8F#	16d	8a
.	16e	.
8FF#	16d	8f#
.	16c#	.
8F#	16B	[8d
.	16A	.
=20	=20	=20
8E	16G#	8d]
.	16A#	.
16F#	8.A#T	8c#
16E	.	.
16D	.	[8f#
16C#	32G#	.
.	32A#	.
=21	=21	=21
16D	8B	8f#]
16F#	.	.
16E	8r	8r
16D	.	.
16C#	8r	8g#
16BB	.	.
=22	=22	=22
16C#	4.r	16a
16D#	.	16cc#
8.D#T	.	16b
.	.	16a
.	.	16g#
32C#	.	16f#
32D#	.	.
=23	=23	=23
16E	4.r	16g#
16Gn	.	16a#
16F#	.	8.a#T
16E	.	.
16Dn	.	.
16C#	.	32g#
.	.	32a#
=24	=24	=24
16D#	4.r	16b
16E#	.	16dd
8.E#T	.	16cc#
.	.	16b
.	.	16an
32D#	.	16g#
32E#	.	.
=25	=25	=25
16F#	4.r	16a
16A	.	16b
16G#	.	8.bT
16F#	.	.
16E#	.	.
16D#	.	32a
.	.	32b
=26	=26	=26
16E#	8r	[4.cc#
16G#	.	.
16F#	8r	.
16E#	.	.
16D#	8c#	.
16C#	.	.
=27	=27	=27
8F#	8A	16cc#]
.	.	16dd
8AA	8F#	16cc#
.	.	16b
8C#	8E#	16a
.	.	16g#
=28	=28	=28
8FF#	8F#	8a
8r	16G#	8f#
.	16A	.
8r	16B	8e#
.	16c#	.
=29	=29	=29
16r	8d	4f#
16A	.	.
16BB	8D	.
16A	.	.
16BB	8d	[8b
16G#	.	.
=30	=30	=30
16AA	8c#	8b]
16G#	.	.
16AA	8C#	8e#
16G#	.	.
16AA	8c#	8f#
16F#	.	.
=31	=31	=31
16GG#	8B	8d
16F#	.	.
16E#	16c#	[4c#
16G#	16B	.
16C#	16A	.
16E#	16G#	.
=32	=32	=32
16FF#	8A	4c#]
16F#	.	.
16GG#	8B	.
16F#	.	.
16AA	[8c#	8f#
16F#	.	.
=33	=33	=33
16BB	8c#]	8d
16F#	.	.
16C#	8B	8e
16F#	.	.
16D	8A	[8f#
16F#	.	.
=34	=34	=34
16EE	8G	8f#]
16E	.	.
16FF#	8A	8e
16E	.	.
16GG	[8B	8d
16E	.	.
=35	=35	=35
16AA	8B]	8c#
16E	.	.
16BB	8A	8r
16E	.	.
16C#	8r	8aa
16E	.	.
=36	=36	=36
16D	4.r	8ff#
16E	.	.
16F#	.	8dd
16G	.	.
16A	.	8cc#
16G	.	.
=37	=37	=37
16F#	4.r	8dd
16A	.	.
16G	.	16ee
16F#	.	16ff#
16E	.	16gg
16D	.	16aa
=38	=38	=38
8G	16r	8bb
.	16f#	.
8r	16G	8b
.	16f#	.
8E	16G	8bb
.	16e	.
=39	=39	=39
8F#	16F#	8aa
.	16e	.
8r	16F#	8a
.	16e	.
8D	16D	8aa
.	16d	.
=40	=40	=40
8E	16E	8gg
.	16d	.
4A	16c#	16aa
.	16e	16gg
.	16A	16ff#
.	16c#	16ee
=41	=41	=41
8D	16d	16ff#
.	16c#	16aa
8r	16d	16gg
.	16e	16ff#
8B	16f#	16ee
.	16g#	16dd
=42	=42	=42
8f#	16a	8cc#
.	16g#	.
8r	16a	8dd
.	16b	.
8c#	16a	[8ee
.	16g#	.
=43	=43	=43
8d	16f#	8ee]
.	16e	.
8r	16f#	8dd
.	16g#	.
8d#	16a	8cc#
.	16f#	.
=44	=44	=44
8e	16g#	8b
.	16e	.
8r	16f#	8a
.	16e	.
8E	16g#	8b
.	16e	.
=45	=45	=45
8C#	16a	8cc#
.	16e	.
8AA	16cc#	8ee
.	16e	.
8GG#	16b	8dd
.	16e	.
=46	=46	=46
8AA	8.a	[4.cc#
16BB	.	.
16C#	16g#	.
16D	16f#	.
16E	16e	.
=47	=47	=47
8F#	8d	16cc#]
.	.	16cc#
8FF#	8a	16d
.	.	16cc#
8F#	8g#	16d
.	.	16b
=48	=48	=48
8E	8r	16c#
.	.	16b
8EE	8g#	16c#
.	.	16b
8E	8f#	16c#
.	.	16a
=49	=49	=49
8D	8r	16B
.	.	16a
16E	8e	16g#
16D	.	16b
16C#	[8d	16e
16BB	.	16g#
=50	=50	=50
16C#	8d]	8a
16E	.	.
16A	8c#	8e
16E	.	.
16D#	[8cn	8f#
16A	.	.
=51	=51	=51
16E	8c]	8g
16G	.	.
16F#	8B	8g#
16E	.	.
16Dn	[8e	8a#
16C#	.	.
=52	=52	=52
16D	8e]	8b
16F#	.	.
16B	8d#	8f#
16F#	.	.
16E#	[8dn	8g#
16B	.	.
=53	=53	=53
16F#	8d]	8a
16A	.	.
16G#	8c#	8a#
16F#	.	.
16E#	[8f#	8b#
16D#	.	.
=54	=54	=54
16C#	8f#]	[4.cc#
16Dn	.	.
16C#	8e#	.
16BB	.	.
16AA	8cc#	.
16GG#	.	.
=55	=55	=55
16FF#	8a	8cc#]
16F#	.	.
16G#	8f#	8a
16A	.	.
16B	8e#	8g#
16c#	.	.
=56	=56	=56
16d	8f#	8f#
16e	.	.
16d	16g#	8r
16c#	16a#	.
16B	16b	8r
16A#	16cc#	.
=57	=57	=57
8B	8dd	16r
.	.	16aa
8r	8d	16b
.	.	16aa
8E	8dd	16b
.	.	16gg#
=58	=58	=58
8A	8cc#	16a
.	.	16gg#
8r	8c#	16a
.	.	16gg#
[8d	8cc#	16a
.	.	16ff#
=59	=59	=59
8d]	8b	16g#
.	.	16ff#
[4c#	16cc#	16ee#
.	16b	16gg#
.	16a	16cc#
.	16g#	16ee#
=60	=60	=60
16c#]	[4.a	8ff#
16B	.	.
16A	.	8cc#
16G#	.	.
16F#	.	[8ff#
16E	.	.
=61	=61	=61
8D#	4a_	16ff#]
.	.	16ee
[4B	.	16dd#
.	.	16cc#
.	16a]	[8b
.	16a	.
=62	=62	=62
16B]	16gn	8b]
16A	16f#	.
16G	8e	8b
16F#	.	.
16E	[8g	[8ee
16D	.	.
=63	=63	=63
8C#	4g_	16ee]
.	.	16dd
[4A	.	16cc#
.	.	16b
.	16g]	[8a
.	16g	.
=64	=64	=64
16A]	16f#	8a]
16G	16e	.
16F#	8d	8a
16E	.	.
16D	[8f#	[8dd
16C#	.	.
=65	=65	=65
8BB	16f#]	8.dd]
.	16f#	.
[4G	[4e	.
.	.	16dd
.	.	16cc#
.	.	16b
=66	=66	=66
8G]	16e]	8a#
.	16e	.
[4F#	16d	8b
.	16c#	.
.	16B	8cc#
.	16A#	.
=67	=67	=67
16F#]	8B	[4.dd
16E	.	.
16D	8f#	.
16C#	.	.
16BB	[8b	.
16AA	.	.
=68	=68	=68
8GG	8b]	16dd]
.	.	16cc#
4G	8B	16dd
.	.	16ee
.	[8e	16ff#
.	.	16gg
=69	=69	=69
4F#	16e]	4a#
.	16g	.
.	16f#	.
.	16e	.
8r	16d	8r
.	16c#	.
=70	=70	=70
16r	8d	4.r
16BB	.	.
16C#	8B	.
16D	.	.
16E	8A#	.
16F#	.	.
=71	=71	=71
8G	8B	4.r
8E	16c#	.
.	16d#	.
8D#	16e	.
.	16f#	.
=72	=72	=72
8E	8g	4.r
16F#	8e	.
16G	.	.
16A	8d#	.
16B	.	.
=73	=73	=73
8cn	8e	16r
.	.	16gg
8Cn	8r	16a
.	.	16gg
8c	8e	16a
.	.	16ff#
=74	=74	=74
8B	8d#	16g
.	.	16ff#
8BB	8r	16g
.	.	16ff#
8B	8e	16g
.	.	16ee
=75	=75	=75
8A	4.f#	16f#
.	.	16ee
16B	.	16dd#
16A	.	16ff#
16G	.	16b
16F#	.	16dd#
=76	=76	=76
8G	8B	16ee
.	.	16dd#
8GG	8r	16ee
.	.	16gg
[8G	8e	16bb
.	.	16ddn
=77	=77	=77
8G]	8a	16cc#
.	.	16b
16A	8r	16cc#
16G	.	16ee
16F#	8r	16a
16E	.	16cc#
=78	=78	=78
8F#	8A	16dd
.	.	16cc#
8FF#	8r	16dd
.	.	16ff#
[8F#	8d	16aa
.	.	16cc#
=79	=79	=79
8F#]	[4.g	16b
.	.	16a#
8E	.	16b
.	.	16dd
8D	.	16cc#
.	.	16b
=80	=80	=80
16C#	8g]	16a#
16D	.	16b
16E	8r	16cc#
16F#	.	16dd
16G	16r	[8ee
16BB	16g	.
=81	=81	=81
16AA#	8f#	8ee]
16G	.	.
16F#	4a#	8cc#
16E	.	.
16D	.	8ff#
16C#	.	.
=82	=82	=82
16BB	8b	8dd
16C#	.	.
16D	8r	8b
16E	.	.
16F#	8r	8a#
16E	.	.
=83	=83	=83
16D	4.r	8b
16F#	.	.
16E	.	16cc#
16D	.	16dd
16C#	.	16ee
16BB	.	16ff#
=84	=84	=84
8E	16r	8gg
.	16dd	.
8r	16e	8g
.	16dd	.
8A	16e	8gg
.	16cc#	.
=85	=85	=85
8D	16d	8ff#
.	16cc#	.
8r	16d	8f#
.	16cc#	.
8G	16d	8ff#
.	16b	.
=86	=86	=86
16C#	8c#	8ee
16B	.	.
16A#	[4cc#	16ff#
16c#	.	16ee
16F#	.	16dd
16A#	.	16cc#
=87	=87	=87
16BB	8cc#]	8dd
16B	.	.
16C#	8b	8ee
16B	.	.
16D	8a	[8ff#
16B	.	.
=88	=88	=88
16E	8g	8ff#]
16B	.	.
16F#	8a	8ee
16B	.	.
16G	[8b	8dd
16B	.	.
=89	=89	=89
16AA	8b]	8cc#
16A	.	.
16BB	8a	8dd
16A	.	.
16C#	8g	[8ee
16A	.	.
=90	=90	=90
16D	8f#	8ee]
16A	.	.
16E	8g	8dd
16A	.	.
16F#	[8a	8cc#
16A	.	.
=91	=91	=91
16G	8a]	4b
16B	.	.
16A	8d	.
16G	.	.
16F#	[8g	8cc#
16E	.	.
=92	=92	=92
16F#	8g]	8dd
16A	.	.
16d	8f#	8a
16A	.	.
16G#	[8fn	8b
16d	.	.
=93	=93	=93
16A	8f]	8ccn
16cn	.	.
16B	8e	8cc#
16A	.	.
16Gn	[8a	8dd#
16F#	.	.
=94	=94	=94
16G	8a]	8ee
16B	.	.
16e	8g#	8b
16B	.	.
16A#	[8gn	8cc#
16e	.	.
=95	=95	=95
16B	8g]	8dd
16d	.	.
16c#	8f#	8dd#
16B	.	.
16A#	[8b	8ee#
16G#	.	.
=96	=96	=96
16F#	8b]	4ff#
16Gn	.	.
16F#	8a#	.
16E	.	.
16D	8f#	8r
16C#	.	.
=97	=97	=97
16BB	8d	4.r
16C#	.	.
16D	8B	.
16E	.	.
16F#	8A#	.
16E	.	.
=98	=98	=98
8D	16B	8r
.	16b	.
8BB	16a#	8r
.	16b	.
8AA#	8cc#	16r
.	.	16ff#
=99	=99	=99
8BB	8r	16ee
.	.	16dd
8DD	8f#	16cc#
.	.	16b
8FF#	8e	16cc#
.	.	16a#
=100	=100	=100
4.BBB	4.d#	4.b
==	==	==
*-	*-	*-
!!!CDT: 1685/3/-1750/7/28
!!!OCY: Deutschland
!!!PPP: Leipzig
!!!ODT: 1738//-1742//
!!!PDT: 1739//-1742//
!!!AFR: fuga; fugue
!!!AST: polyphony
!!!AMT: simple triple
!!!SCA: Bach-Werke-Verzeichnis
!!!YOR: Bach Gesellschaft
!!!SMS: British Library, various
!!!AIN: cemba; clavi
!!!EEV: 1.0
!!!RDT: 1986 December 15
!!!YER: 1994 August 10
!!!EFL: 48/48
!!!VTS: 2875278937
